X: 2063
M: 3/2
L: 1/4
K: Dm
|:\
(Bd) (ed) B2 | (AB) AG E2 |\
(ed) (BG) AA | G3 A G2 :|
|:\
e>f g2 f2 | e4 d2 |\
e>f g2 f2 | e4 d2 |
e>f gf e2 | (de) (ge) d2 |\
(ge) (ge) (dB) | (AG) (Bd) (eg) |\
d>e (dB) (AG) | G3 A G2 |]


